X: 4
T: The Sailor's Wife
R: jig
M: 6/8
L: 1/8
K: Ddor
|: E |DEF E2 D | d2 e f2 g | agf edc | A/B/cA GEA |
DD/E/F E2 D | d2 e f2 g | afd ge^c | d3 D2 :|
|: e |fga f2 a | fda agf | ecg e2 c | ee/f/g gfe |
fga agf | ecg gfe | dd/e/f ed^c | d3 D2 :|


Tune 3140	Setting 30182

